X:1
T:The Celestial City
T:The Celestial City
T:Grace Watkins
T:Grace Watkins, 1903
T:Public Domain Courtesy of the Cyber Hymnal™
T:Public Domain Courtesy of the Cyber Hymnal™
C:Grace Watkins
Z:Public Domain
Z:Courtesy of the Cyber Hymnal™
%%score ( 1 2 ) ( 3 4 )
L:1/8
Q:1/4=117
M:4/4
K:E
V:1 treble 
V:2 treble 
V:3 bass 
V:4 bass 
V:1
 E2 | [EG]2 [GB]2 [GB]2 [Ac]2 | [GB]2 [EG]2 E2 [DF]2 | [EG]2 [Ec]2 [EB]2 [EG]2 | [DF]6 E2 | %5
w: 1.~There|is a ci- ty|built on high, From|earth- ly sor- rows|free, Bought|
w: 2.~Its|gates are pearl, its|streets are gold, Its|walls are jew- els|rare; No|
w: 3.~There|peace and joy will|reign com- plete, There’ll|be no night or|strife; Oh,|
 [EG]2 [GB]2 [GB]2 [Ac]2 | [GB]2 [EG]2 E2 [EG]2 | [EB]2 [Ec]2 [EG]2 [DF]2 | E6 || %9
w: by a Sav- ior’s|pre- cious blood, A|home for you and|me.|
w: need of sun or|moon to shine, For|God is bright- ness|there.|
w: will your name be|writ- ten in The|Lamb’s great book of|life?|
"^Refrain"[Q:1/4=100] !fermata![EG][FA] | [Ge][Ge][Ge][GB] [Ac]<[GB] GF | EEFE C<B, B,C | %12
w: |||
w: I will|meet you in that ci- ty, In that|bright ce- les- tial ci- ty, Where all|
w: |||
 [B,E][B,E][B,E][B,F] [EG][EB] [DB]>[Ec] | [DB]6 !fermata![EB][Ec] | %14
w: ||
w: sor- row, pain, and part- ing will be|o’er; I will|
w: ||
 [Ge][Ge][Ge][GB] [Ac]<[GB] GF | EEFE C<B, B,C | [B,E][B,E][B,E][EG] [EB][EG][DF][DG] | E6 |] %18
w: ||||
w: meet you in that ci- ty, In God’s|ev- er- last- ing ci- ty, There we’ll|praise Him with our loved ones gone be-|fore.|
w: ||||
V:2
 E2 | x8 | x4 E2 x2 | x8 | x6 E2 | x8 | x4 E2 x2 | x8 | E6 || x2 | x6 GF | EEFE C<B, B,C | x8 | %13
 x8 | x6 GF | EEFE C<B, B,C | x8 | E6 |] %18
V:3
 [E,G,]2 | [E,B,]2 [E,E]2 [E,E]2 [E,E]2 | [E,E]2 [E,B,]2 [E,G,]2 [B,,B,]2 | %3
 [E,B,]2 A,2 [G,B,]2 [E,B,]2 | [B,,B,]6 [E,G,]2 | [E,B,]2 [E,E]2 [E,E]2 [E,E]2 | %6
 [E,E]2 [E,B,]2 [E,G,]2 [E,B,]2 | [G,E]2 [A,E]2 B,2 [B,,A,]2 | [E,G,]6 || [E,E][E,E] | %10
 [E,B,][E,B,][E,B,][E,E] [E,E]<[E,E] G,F, | E,E,F,E, C,<B,, B,,C, | %12
 E,[E,G,][E,G,][E,A,] [E,B,][G,B,] [F,B,]>[F,^A,] | [B,,B,]6 !fermata![E,G,][E,A,] | %14
 [E,B,][E,B,][E,B,][E,E] [E,E]<[E,E] G,F, | E,E,F,E, C,<B,, B,,C, | %16
 E,[E,G,][E,G,][C,G,] [B,,G,][B,,B,][B,,A,][B,,B,] | [E,G,]6 |] %18
V:4
 x2 | x8 | x8 | x2 A,2 x4 | x8 | x8 | x8 | x4 B,2 x2 | x6 || x2 | x6 G,F, | E,E,F,E, C,<B,, B,,C, | %12
 E, x7 | x8 | x6 G,F, | E,E,F,E, C,<B,, B,,C, | E, x7 | x6 |] %18

